assets/fc/fc-mind-map.svg

<svg xmlns="http://www.w3.org/2000/svg" width="100%" height="100%" viewBox="0 0 48 48"><path fill="#CFD8DC" d="M39.4 23l-.8-4L26 21.6V8h-4v12.3l-13.9-9-2.2 3.4 15.2 9.8L9.4 39.8l3.2 2.4 11.3-14.8 8.4 12.7 3.4-2.2-8.4-12.5z"/><circle cx="24" cy="24" r="7" fill="#3F51B5"/><g fill="#00BCD4"><circle cx="24" cy="8" r="5"/><circle cx="39" cy="21" r="5"/><circle cx="7" cy="13" r="5"/><circle cx="11" cy="41" r="5"/><circle cx="34" cy="39" r="5"/></g></svg>

<svg xmlns="http://www.w3.org/2000/svg" width="100%" height="100%" viewBox="0 0 48 48"><path fill="#CFD8DC" d="M39.4 23L38.6 19 26 21.6 26 8 22 8 22 20.3 8.1 11.3 5.9 14.7 21.1 24.5 9.4 39.8 12.6 42.2 23.9 27.4 32.3 40.1 35.7 37.9 27.3 25.4z"/><circle cx="24" cy="24" r="7" fill="#3F51B5"/><g fill="#00BCD4"><circle cx="24" cy="8" r="5"/><circle cx="39" cy="21" r="5"/><circle cx="7" cy="13" r="5"/><circle cx="11" cy="41" r="5"/><circle cx="34" cy="39" r="5"/></g></svg>
